X:359
%%etbk:tnset id:167,pos:1,rep:3x,ant:
%%etbk:pldat 2014-12-31T15:22,2014-02-16T14:13,2014-02-14T16:09,2014-02-05T15:56,2013-11-27T17:39,2013-11-19T15:22,2013-10-04T16:23,2013-10-03T19:41,2013-05-22T16:03,2013-05-18T14:09,2013-05-14T18:18
T:I Buried My Wife And Danced On Top Of Her Grave
Z: Piano Box Version by Martin Fleischmann
H: Created 2013-02-19 /  Modified 2013-10-03
M:6/8
L:1/8
R:jig
K: Dmix
|: "D"!1!DED !3!F2!1!G | !2!A!5!d!3!B !4!=c!2!A!1!F | "G"!3!GFG !5!BAG | "D"!2!FAF "A"!3!GEA|
"D"!1!DED !3!F2!1!G | !2!A!5!d!3!B !4!=c!2!A!1!F | "G"!3!GFG !5!BAG | "D"!4!A!2!F!1!D D3:|
|: "D"!2!d2!3!e !4!fed | !4!f!5!af "A"!5!gfe | "D"!2!d2!3!e !4!fe!2!d | "A"!3!d=cA d=cA|
"D"!2!d2!3!e !4!fed | !4!f!5!af !5!gfe | !2!d!2!d!1!A "A"!2!B!1!A!3!G |1 "D"!4!A!2!F!1!D !1!D!2!F!1!A:|2 "D"!4!A!2!F!1!D D3||


